public/svg/smsUzLongLogo.svg

<svg width="313" height="47" viewBox="0 0 313 47" fill="none" xmlns="http://www.w3.org/2000/svg">
<path d="M18.608 46.448C13.36 46.448 9.05067 45.2107 5.68 42.736C2.30933 40.2187 0.496 36.6347 0.24 31.984H13.616C13.744 33.5627 14.2133 34.7147 15.024 35.44C15.8347 36.1653 16.88 36.528 18.16 36.528C19.312 36.528 20.2507 36.2507 20.976 35.696C21.744 35.0987 22.128 34.288 22.128 33.264C22.128 31.9413 21.5093 30.9173 20.272 30.192C19.0347 29.4667 17.0293 28.656 14.256 27.76C11.312 26.7787 8.92267 25.84 7.088 24.944C5.296 24.0053 3.71733 22.6613 2.352 20.912C1.02933 19.12 0.368 16.7947 0.368 13.936C0.368 11.0347 1.09333 8.56 2.544 6.512C3.99467 4.42133 6 2.84267 8.56 1.776C11.12 0.709332 14.0213 0.175999 17.264 0.175999C22.512 0.175999 26.6933 1.41333 29.808 3.888C32.9653 6.32 34.6507 9.75467 34.864 14.192H21.232C21.1893 12.8267 20.7627 11.8027 19.952 11.12C19.184 10.4373 18.1813 10.096 16.944 10.096C16.0053 10.096 15.2373 10.3733 14.64 10.928C14.0427 11.4827 13.744 12.272 13.744 13.296C13.744 14.1493 14.064 14.896 14.704 15.536C15.3867 16.1333 16.2187 16.6667 17.2 17.136C18.1813 17.5627 19.632 18.1173 21.552 18.8C24.4107 19.7813 26.7573 20.7627 28.592 21.744C30.4693 22.6827 32.0693 24.0267 33.392 25.776C34.7573 27.4827 35.44 29.6587 35.44 32.304C35.44 34.992 34.7573 37.4027 33.392 39.536C32.0693 41.6693 30.128 43.3547 27.568 44.592C25.0507 45.8293 22.064 46.448 18.608 46.448ZM88.1835 9.776C92.7062 9.776 96.2475 11.1413 98.8075 13.872C101.41 16.6027 102.712 20.336 102.712 25.072V46H90.1675V26.736C90.1675 24.816 89.6342 23.3227 88.5675 22.256C87.5008 21.1893 86.0502 20.656 84.2155 20.656C82.3808 20.656 80.9302 21.1893 79.8635 22.256C78.7968 23.3227 78.2635 24.816 78.2635 26.736V46H65.7195V26.736C65.7195 24.816 65.1862 23.3227 64.1195 22.256C63.0955 21.1893 61.6662 20.656 59.8315 20.656C57.9542 20.656 56.4822 21.1893 55.4155 22.256C54.3488 23.3227 53.8155 24.816 53.8155 26.736V46H41.2715V10.096H53.8155V14.832C54.9248 13.296 56.3542 12.08 58.1035 11.184C59.8955 10.2453 61.9435 9.776 64.2475 9.776C66.8928 9.776 69.2395 10.352 71.2875 11.504C73.3782 12.656 75.0208 14.2773 76.2155 16.368C77.4955 14.4053 79.1808 12.8267 81.2715 11.632C83.3622 10.3947 85.6662 9.776 88.1835 9.776ZM124.88 46.448C121.637 46.448 118.736 45.9147 116.176 44.848C113.659 43.7387 111.653 42.2453 110.16 40.368C108.709 38.448 107.899 36.2933 107.728 33.904H119.888C120.059 35.056 120.592 35.952 121.488 36.592C122.384 37.232 123.493 37.552 124.816 37.552C125.84 37.552 126.651 37.3387 127.248 36.912C127.845 36.4853 128.144 35.9307 128.144 35.248C128.144 34.352 127.653 33.6907 126.672 33.264C125.691 32.8373 124.069 32.368 121.808 31.856C119.248 31.344 117.115 30.768 115.408 30.128C113.701 29.488 112.208 28.4427 110.928 26.992C109.691 25.5413 109.072 23.5787 109.072 21.104C109.072 18.9707 109.648 17.0507 110.8 15.344C111.952 13.5947 113.637 12.208 115.856 11.184C118.117 10.16 120.827 9.648 123.984 9.648C128.677 9.648 132.368 10.8 135.056 13.104C137.744 15.408 139.301 18.4373 139.728 22.192H128.4C128.187 21.04 127.675 20.1653 126.864 19.568C126.096 18.928 125.051 18.608 123.728 18.608C122.704 18.608 121.915 18.8 121.36 19.184C120.848 19.568 120.592 20.1013 120.592 20.784C120.592 21.6373 121.083 22.2987 122.064 22.768C123.045 23.1947 124.624 23.6427 126.8 24.112C129.403 24.6667 131.557 25.2853 133.264 25.968C135.013 26.6507 136.528 27.76 137.808 29.296C139.131 30.7893 139.792 32.8373 139.792 35.44C139.792 37.5307 139.173 39.408 137.936 41.072C136.741 42.736 135.013 44.0587 132.752 45.04C130.533 45.9787 127.909 46.448 124.88 46.448ZM182.695 10.096V46H170.087V40.88C169.02 42.5013 167.548 43.824 165.671 44.848C163.794 45.8293 161.639 46.32 159.207 46.32C155.026 46.32 151.719 44.9547 149.287 42.224C146.898 39.4507 145.703 35.696 145.703 30.96V10.096H158.183V29.36C158.183 31.408 158.716 33.0293 159.783 34.224C160.892 35.376 162.343 35.952 164.135 35.952C165.97 35.952 167.42 35.376 168.487 34.224C169.554 33.0293 170.087 31.408 170.087 29.36V10.096H182.695ZM201.738 35.568H217.034V46H187.914V36.08L202.186 20.528H188.042V10.096H216.522V20.016L201.738 35.568ZM228.352 46.512C226.133 46.512 224.341 45.9147 222.976 44.72C221.653 43.4827 220.992 41.9253 220.992 40.048C220.992 38.1707 221.653 36.6133 222.976 35.376C224.341 34.1387 226.133 33.52 228.352 33.52C230.528 33.52 232.277 34.1387 233.6 35.376C234.965 36.6133 235.648 38.1707 235.648 40.048C235.648 41.8827 234.965 43.4187 233.6 44.656C232.277 45.8933 230.528 46.512 228.352 46.512ZM278.258 10.096V46H265.65V40.88C264.583 42.5013 263.111 43.824 261.234 44.848C259.356 45.8293 257.202 46.32 254.77 46.32C250.588 46.32 247.282 44.9547 244.85 42.224C242.46 39.4507 241.266 35.696 241.266 30.96V10.096H253.746V29.36C253.746 31.408 254.279 33.0293 255.346 34.224C256.455 35.376 257.906 35.952 259.698 35.952C261.532 35.952 262.983 35.376 264.05 34.224C265.116 33.0293 265.65 31.408 265.65 29.36V10.096H278.258ZM297.301 35.568H312.597V46H283.477V36.08L297.749 20.528H283.605V10.096H312.085V20.016L297.301 35.568Z" fill="#1B5BF7"/>
</svg>

<svg xmlns="http://www.w3.org/2000/svg" width="313" height="47" fill="none" xmlns:v="https://vecta.io/nano"><path d="M18.608 46.448c-5.248 0-9.557-1.237-12.928-3.712C2.309 40.219.496 36.635.24 31.984h13.376c.128 1.579.597 2.731 1.408 3.456s1.856 1.088 3.136 1.088c1.152 0 2.091-.277 2.816-.832.768-.597 1.152-1.408 1.152-2.432 0-1.323-.619-2.347-1.856-3.072s-3.243-1.536-6.016-2.432c-2.944-.981-5.333-1.92-7.168-2.816-1.792-.939-3.371-2.283-4.736-4.032C1.029 19.12.368 16.795.368 13.936c0-2.901.725-5.376 2.176-7.424C3.995 4.421 6 2.843 8.56 1.776s5.461-1.6 8.704-1.6c5.248 0 9.429 1.237 12.544 3.712 3.157 2.432 4.843 5.867 5.056 10.304H21.232c-.043-1.365-.469-2.389-1.28-3.072-.768-.683-1.771-1.024-3.008-1.024-.939 0-1.707.277-2.304.832s-.896 1.344-.896 2.368c0 .853.32 1.6.96 2.24.683.597 1.515 1.131 2.496 1.6.981.427 2.432.981 4.352 1.664 2.859.981 5.205 1.963 7.04 2.944 1.877.939 3.477 2.283 4.8 4.032 1.365 1.707 2.048 3.883 2.048 6.528 0 2.688-.683 5.099-2.048 7.232-1.323 2.133-3.264 3.819-5.824 5.056-2.517 1.237-5.504 1.856-8.96 1.856zM88.184 9.776c4.523 0 8.064 1.365 10.624 4.096 2.602 2.731 3.904 6.464 3.904 11.2V46H90.168V26.736c0-1.92-.533-3.413-1.6-4.48s-2.517-1.6-4.352-1.6-3.285.533-4.352 1.6-1.6 2.56-1.6 4.48V46H65.72V26.736c0-1.92-.533-3.413-1.6-4.48-1.024-1.067-2.453-1.6-4.288-1.6-1.877 0-3.349.533-4.416 1.6s-1.6 2.56-1.6 4.48V46H41.272V10.096h12.544v4.736c1.109-1.536 2.539-2.752 4.288-3.648 1.792-.939 3.84-1.408 6.144-1.408 2.645 0 4.992.576 7.04 1.728a12.56 12.56 0 0 1 4.928 4.864c1.28-1.963 2.965-3.541 5.056-4.736 2.091-1.237 4.395-1.856 6.912-1.856zm36.697 36.672c-3.243 0-6.144-.533-8.704-1.6-2.517-1.109-4.523-2.603-6.016-4.48-1.451-1.92-2.261-4.075-2.432-6.464h12.16c.171 1.152.704 2.048 1.6 2.688s2.005.96 3.328.96c1.024 0 1.835-.213 2.432-.64s.896-.981.896-1.664c0-.896-.491-1.557-1.472-1.984s-2.603-.896-4.864-1.408c-2.56-.512-4.693-1.088-6.4-1.728s-3.2-1.685-4.48-3.136c-1.237-1.451-1.856-3.413-1.856-5.888 0-2.133.576-4.053 1.728-5.76 1.152-1.749 2.837-3.136 5.056-4.16 2.261-1.024 4.971-1.536 8.128-1.536 4.693 0 8.384 1.152 11.072 3.456s4.245 5.333 4.672 9.088H128.4c-.213-1.152-.725-2.027-1.536-2.624-.768-.64-1.813-.96-3.136-.96-1.024 0-1.813.192-2.368.576-.512.384-.768.917-.768 1.6 0 .853.491 1.515 1.472 1.984.981.427 2.56.875 4.736 1.344 2.603.555 4.757 1.173 6.464 1.856 1.749.683 3.264 1.792 4.544 3.328 1.323 1.493 1.984 3.541 1.984 6.144a9.2 9.2 0 0 1-1.856 5.632c-1.195 1.664-2.923 2.987-5.184 3.968-2.219.939-4.843 1.408-7.872 1.408zm57.815-36.352V46h-12.608v-5.12c-1.067 1.621-2.539 2.944-4.416 3.968-1.877.981-4.032 1.472-6.464 1.472-4.181 0-7.488-1.365-9.92-4.096-2.389-2.773-3.584-6.528-3.584-11.264V10.096h12.48V29.36c0 2.048.533 3.669 1.6 4.864 1.109 1.152 2.56 1.728 4.352 1.728 1.835 0 3.285-.576 4.352-1.728 1.067-1.195 1.6-2.816 1.6-4.864V10.096h12.608zm19.043 25.472h15.296V46h-29.12v-9.92l14.272-15.552h-14.144V10.096h28.48v9.92l-14.784 15.552zm26.614 10.944c-2.219 0-4.011-.597-5.376-1.792-1.323-1.237-1.984-2.795-1.984-4.672s.661-3.435 1.984-4.672c1.365-1.237 3.157-1.856 5.376-1.856 2.176 0 3.925.619 5.248 1.856 1.365 1.237 2.048 2.795 2.048 4.672 0 1.835-.683 3.371-2.048 4.608-1.323 1.237-3.072 1.856-5.248 1.856zm49.906-36.416V46H265.65v-5.12c-1.067 1.621-2.539 2.944-4.416 3.968-1.878.981-4.032 1.472-6.464 1.472-4.182 0-7.488-1.365-9.92-4.096-2.39-2.773-3.584-6.528-3.584-11.264V10.096h12.48V29.36c0 2.048.533 3.669 1.6 4.864 1.109 1.152 2.56 1.728 4.352 1.728 1.834 0 3.285-.576 4.352-1.728 1.066-1.195 1.6-2.816 1.6-4.864V10.096h12.608zm19.043 25.472h15.296V46h-29.12v-9.92l14.272-15.552h-14.144V10.096h28.48v9.92l-14.784 15.552z" fill="#1b5bf7"/></svg>
